src/assets/metronic/worbby/global/img/icon-insurance-open-without.svg

<?xml version="1.0" encoding="UTF-8"?>
<svg width="80px" height="80px" viewBox="0 0 80 80" version="1.1" xmlns="http://www.w3.org/2000/svg" xmlns:xlink="http://www.w3.org/1999/xlink">
    <defs>
        <linearGradient x1="0%" y1="49.9979293%" x2="99.9874969%" y2="49.9979293%" id="linearGradient-1">
            <stop stop-color="#FFB247" offset="0%"></stop>
            <stop stop-color="#FFCB33" offset="100%"></stop>
        </linearGradient>
    </defs>
    <g id="Desktop" stroke="none" stroke-width="1" fill="none" fill-rule="evenodd">
        <g id="icons" transform="translate(-940.000000, -185.000000)">
            <g id="icon-insurance-open-copy-2" transform="translate(940.000000, 185.000000)">
                <circle id="Oval" fill="url(#linearGradient-1)" cx="27.5" cy="52.5" r="27.5"></circle>
                <path d="M79.9798629,35.9292667 C79.809936,18.4620511 66.1222236,4.16878882 48.8765461,2.94928243 L48.8765461,2.37998905 C48.8765461,1.0652831 47.8082974,0 46.4899315,0 C45.1715655,0 44.1033168,1.0652831 44.1033168,2.37998905 L44.1033168,2.94928243 C26.7554922,4.17545279 13.0085918,18.6343623 13,36.2434253 C13,37.3172763 13.719803,38.257848 14.7594123,38.5405907 C14.9675251,38.5977105 15.1785019,38.6243663 15.3866147,38.6243663 C16.2171566,38.6243663 17.0066487,38.1912083 17.4429218,37.4515077 C18.6868254,35.3447414 20.984658,33.9300759 23.1631598,33.9300759 C25.3359338,33.9300759 27.5573947,35.3123736 28.8194366,37.4515077 C29.2480726,38.1788324 30.0308822,38.6243663 30.8757438,38.6243663 L30.8766984,38.6243663 C31.7225146,38.6243663 32.5053242,38.1769284 32.9330056,37.4505557 C34.1539976,35.3771093 36.5320205,33.9300759 38.7143409,33.9300759 C40.7200519,33.9300759 42.8145449,35.1353024 44.1033168,36.965038 L44.1033168,70.2744127 C44.1033168,75.6370041 48.4794134,80 53.8588429,80 C59.2382723,80 63.6143689,75.6370041 63.6143689,70.2744127 C63.6143689,68.9597068 62.5461202,67.8944237 61.2277543,67.8944237 C59.9093883,67.8944237 58.8411396,68.9597068 58.8411396,70.2744127 C58.8411396,73.0123521 56.6063137,75.2400219 53.8588429,75.2400219 C51.1113721,75.2400219 48.8765461,73.0123521 48.8765461,70.2744127 L48.8765461,36.96599 C50.1700913,35.1343504 52.2645843,33.9300759 54.2645674,33.9300759 C56.4526157,33.9300759 58.7552215,35.3447414 59.9962611,37.4505557 C60.4239425,38.1778804 61.2067521,38.6243663 62.0525683,38.6243663 L62.053523,38.6243663 C62.8993392,38.6243663 63.6811941,38.1778804 64.1098301,37.4524597 C65.3537337,35.3456934 67.6467931,33.9300759 69.8167031,33.9300759 C71.9942503,33.9300759 74.2939922,35.3456934 75.539805,37.4534117 C75.9827607,38.2026323 76.7712982,38.6148464 77.6304795,38.6243663 C78.9412082,38.6148464 79.9999105,37.5533713 79.9999105,36.2443773 C80.0008651,36.1368018 79.9941826,36.0320823 79.9798629,35.9292667 Z M69.8167031,29.1691458 C67.0004978,29.1691458 64.1871565,30.3953162 62.053523,32.4421068 C59.9189348,30.3953162 57.096047,29.1691458 54.2645674,29.1691458 C51.4445435,29.1691458 48.6283382,30.3953162 46.4918408,32.4421068 C44.3601166,30.3953162 41.5410473,29.1691458 38.7152956,29.1691458 C35.8628137,29.1691458 33.0236969,30.3953162 30.8814716,32.4421068 C28.7554753,30.3953162 25.9593176,29.1691458 23.1641145,29.1691458 C21.5278515,29.1691458 19.8934978,29.5813599 18.3937491,30.3248685 C21.1412199,17.3701121 32.6972081,7.61596497 46.4908861,7.61596497 C60.2855188,7.61596497 71.8434163,17.3701121 74.5908871,30.3267725 C73.0873198,29.5813599 71.4520115,29.1691458 69.8167031,29.1691458 Z" id="Shape" fill="#1E2225" fill-rule="nonzero"></path>
            </g>
        </g>
    </g>
</svg>

<svg xmlns="http://www.w3.org/2000/svg" width="80" height="80"><defs><linearGradient id="a" x1="0%" x2="99.9875%" y1="49.9979%" y2="49.9979%"><stop stop-color="#FFB247" offset="0%"/><stop stop-color="#FFCB33" offset="100%"/></linearGradient></defs><g fill="none" fill-rule="evenodd"><circle cx="27.5" cy="52.5" r="27.5" fill="url(#a)"/><path fill="#1E2225" fill-rule="nonzero" d="M79.98 35.9293C79.81 18.462 66.122 4.1688 48.8764 2.9493V2.38c0-1.3147-1.0682-2.38-2.3866-2.38s-2.3867 1.0653-2.3867 2.38v.5693C26.7555 4.1755 13.0086 18.6343 13 36.2433c0 1.074.7198 2.0145 1.7594 2.2973.208.057.419.0838.6272.0838.8306 0 1.62-.4332 2.0563-1.173 1.2438-2.1067 3.5417-3.5213 5.7202-3.5213 2.1727 0 4.3942 1.3824 5.6562 3.5215.4287.7273 1.2115 1.173 2.0563 1.173h.001c.8458 0 1.6286-.4476 2.0563-1.174 1.221-2.0734 3.599-3.5204 5.7813-3.5204 2.0058 0 4.1002 1.2053 5.389 3.035v33.3094c0 5.3626 4.376 9.7256 9.7555 9.7256 5.3795 0 9.7556-4.363 9.7556-9.7256 0-1.3147-1.0683-2.38-2.3866-2.38-1.3184 0-2.3867 1.0653-2.3867 2.38 0 2.738-2.2347 4.9656-4.9822 4.9656-2.7474 0-4.9823-2.2276-4.9823-4.9656V36.966c1.2936-1.8316 3.388-3.036 5.388-3.036 2.188 0 4.4907 1.4147 5.7318 3.5206.4276.7273 1.2105 1.1738 2.0563 1.1738h.001c.8457 0 1.6276-.4465 2.0562-1.172 1.244-2.1067 3.537-3.5223 5.707-3.5223 2.1775 0 4.4772 1.4157 5.723 3.5234.443.7492 1.2315 1.1614 2.0907 1.171 1.3107-.0096 2.3694-1.071 2.3694-2.38.001-.1076-.0058-.2123-.02-.315zM69.8166 29.169c-2.8162 0-5.6295 1.2263-7.7632 3.273-2.1346-2.0467-4.9575-3.273-7.789-3.273-2.82 0-5.6362 1.2263-7.7727 3.273-2.1317-2.0467-4.9508-3.273-7.7765-3.273-2.8525 0-5.6916 1.2263-7.8338 3.273-2.126-2.0467-4.9222-3.273-7.7174-3.273-1.636 0-3.2705.4124-4.7703 1.156C21.1412 17.37 32.6972 7.616 46.491 7.616c13.7945 0 25.3524 9.754 28.1 22.7108-1.5037-.7454-3.139-1.1577-4.7743-1.1577z"/></g></svg>
